shader EdgeWear(
    float edgeThreshold = 0.1,
    color baseColor = color(0.8, 0.8, 0.8),
    color wearColor = color(0.5, 0.5, 0.5),
    output color result = 0)
{
    vector dx = Dx(P);
    vector dy = Dy(P);
    float edgeStrength = length(dx) + length(dy);

    // Aplicar desgaste en los bordes
    float wearFactor = smoothstep(edgeThreshold, edgeThreshold + 0.1, edgeStrength);
    result = mix(baseColor, wearColor, wearFactor);
}
